X:0806
T:The Lass o' Livingston
P:The Lass o' Livingston
C:Allan Ramsay's Music to Tea-Table Miscellany, 1726, and earlier
R:Reel (8x32)
B:RSCDS 8-6
Z:Anselm Lingnau <anselm@strathspey.org>
M:2/4
L:1/16
K:F
|:C2|"F"F3G A3f|cAcd cAGF|"C7"A2G2 G2FG|A2G2 G2FD|
     "F"CDFG A2fd|cAGF GABc|"Bb"d2D2 D2(3CDE|"Dm"F2D2 D2:|
|:(3cde|"F"f3g fgag|fcdf cAGF|"C7"A2G2 G2FG|A2G2 G2 fg|
     "F"afga fcdf|cAGF GABc|"Bb"d2D2 D2(3CDE|"Dm"F2D2 D2:|
